!!!OTL: 212d. Die Rabenmutter.
!!!ARE: Europa, Mitteleuropa, Deutschland, Hessen, Oppenheim; Lerchheim
!!!SCT: E0212B
!!!TXL: @@DE
!!!YEM: Copyright 1995, estate of Helmut Schaffrath.
**kern	**text
*ICvox	*
*M6/8	*
*k[f#c#g#]	*
*A:	*
!LO:TX:a:t=Sehr mäßig.	!
!LO:TX:a:t=Aus Oppenheim a. Rh. u. Lercheim in Oberheſſen.	!
{8e	Es
=1	=1
8eL	hü-
8aJ	-tet
8a	ein
8aL	Schä-
8cc#J	-ſer
8cc#	wol
=2	=2
8cc#L	an
8eeJ	.
8ee	dem
4ee	Rain,
8ee	o
=3	=3
[4.cc#	weh!
8cc#]	.
8r}	.
{8e	Es
=4	=4
8eL	hü-
8aJ	-tet
8a	ein
8aL	Schä-
8cc#J	-ſer
8cc#	wol
=5	=5
8cc#L	an
8eeJ	.
8ee	dem
4ee	Rain,
8ee	o
=6	=6
[4.cc#	weh!
8cc#]	.
8r}	.
{8cc#	er
=7	=7
4cc#	hört
8ee	ein
4ee	klei-
8ee	-nes
=8	=8
4ff#	Kind-
8ee	-lein
4cc#	ſchrein,
8ee	o
=9	=9
[4.cc#	weh!
8cc#]	.
8r}	.
{8cc#	er
=10	=10
4cc#	hört
8ee	ein
4ee	klei-
8ee	-nes
=11	=11
4ff#	Kind-
8ee	-lein
4cc#}	ſchrein,
{8ee	o
=12	=12
8cc#	weh
8a	und
8a	a-
4b/	-de,
8e	o
=13	=13
[4.a	weh!
8a]	.
8r}	.
==	==
!!!AGN: erzaehlendes Volks - Lied, Mahn -, Moral - Lied, Strafe; Rabenmutter
!!!ONB: ESAC (Essen Associative Code) Database: ERK1
!!!AMT: compound duple
!!!AIN: vox
!!!EED: Helmut Schaffrath
!!!EEV: 1.0
!!!GTL: Gottesgerichte und Hoellenstrafen (Mahnlieder)
!!!URL-scan: https://rosdok.uni-rostock.de/mcrviewer/recordIdentifier/rosdok_ppn745146120/iview2/phys_0699.iview2?x=-401.41533699014985&y=340.75841625314206&scale=0.48951656652201847&rotation=0&layout=singlePageLayout
!!!ENC: Anna Maria Matuszewska
!!!EEV: 2024/06/12
*-	*-
